X: 27428
T: Moll Roe
R: slip jig
M: 9/8
K: Gmajor
DGG GAG FGA|BAB GAB c2c|DGG GAG FGA|BAB cAF G2 G|
DGG GAG FGA|BAB GAB c2c|DGG GAG FGA|BAB cAF G2 A||
ded cAG FED|ded cAB c2c|ded cAG FGA|BAB cAF G2 A|
ded cAG FED|ded cAB c2c|ded cAG FGA|BAB cAF G2 G||

